images_sukapura_svg/cmd/sc_beforeobject.svg

<svg viewBox="0 0 16 16" xmlns="http://www.w3.org/2000/svg" xmlns:xlink="http://www.w3.org/1999/xlink"><linearGradient id="a" gradientUnits="userSpaceOnUse" x1="-7" x2="-7" y1="43" y2="35"><stop offset="0" stop-color="#f5f5f5"/><stop offset="1" stop-color="#fff"/></linearGradient>


     /&amp;amp;gt;
 <path d="m1 7v8h4.3496094 4.6503906v-3.910156-.179688-3.910156h-4.6503906z" fill="url(#a)"/><path d="m.5 6a.50005.50005 0 0 0 -.03515625.0019531.50005.50005 0 0 0 -.04882813.0058594.50005.50005 0 0 0 -.08398437.0214844.50005.50005 0 0 0 -.02148437.0078125.50005.50005 0 0 0 -.00585938.0019531.50005.50005 0 0 0 -.03125.015625.50005.50005 0 0 0 -.04296875.0253906.50005.50005 0 0 0 -.02929687.0195313.50005.50005 0 0 0 -.01757813.0136718.50005.50005 0 0 0 -.01953125.0175782.50005.50005 0 0 0 -.01757812.015625.50005.50005 0 0 0 -.015625.0175781.50005.50005 0 0 0 -.01757813.0195313.50005.50005 0 0 0 -.01367187.0175781.50005.50005 0 0 0 -.01171875.015625.50005.50005 0 0 0 -.0078125.0136719.50005.50005 0 0 0 -.02539063.0429687.50005.50005 0 0 0 -.01757812.0371094.50005.50005 0 0 0 -.0078125.0214843.50005.50005 0 0 0 -.01171875.0332032.50005.50005 0 0 0 0 .0058594.50005.50005 0 0 0 -.0078125.0292968.50005.50005 0 0 0 -.00195313.015625.50005.50005 0 0 0 -.00585937.0488282.50005.50005 0 0 0 -.00195313.0351562v9a.50005.50005 0 0 0 .00195313.035156.50005.50005 0 0 0 .00585937.048828.50005.50005 0 0 0 .00976563.044922.50005.50005 0 0 0 0 .00586.50005.50005 0 0 0 .01171875.033203.50005.50005 0 0 0 .0078125.021484.50005.50005 0 0 0 .00195312.005859.50005.50005 0 0 0 .015625.03125.50005.50005 0 0 0 .02539063.042969.50005.50005 0 0 0 .01953125.029297.50005.50005 0 0 0 .01367187.017578.50005.50005 0 0 0 .01757813.019532.50005.50005 0 0 0 .015625.017578.50005.50005 0 0 0 .01757812.015625.50005.50005 0 0 0 .01953125.017578.50005.50005 0 0 0 .01757813.013672.50005.50005 0 0 0 .015625.011718.50005.50005 0 0 0 .01367187.007813.50005.50005 0 0 0 .04296875.02539.50005.50005 0 0 0 .03710938.017579.50005.50005 0 0 0 .02148437.007812.50005.50005 0 0 0 .06835937.019531.50005.50005 0 0 0 .015625.001954.50005.50005 0 0 0 .04882813.005859.50005.50005 0 0 0 .03515625.001953h4.5859375 5.4140625a.50005.50005 0 0 0 .5-.5v-4.5-4.5a.50005.50005 0 0 0 -.5-.5h-5.4140625zm.5 1h4.3496094 4.6503906v3.910156.179688 3.910156h-4.6503906-4.3496094z" fill="#98989d"/><path d="m11 0a5 5 0 0 0 -5 5 5 5 0 0 0 5 5 5 5 0 0 0 5-5 5 5 0 0 0 -5-5zm0 1a3.9995003 3.9995003 0 0 1 4 4 3.9995003 3.9995003 0 0 1 -4 4 3.9995003 3.9995003 0 0 1 -4-4 3.9995003 3.9995003 0 0 1 4-4z" fill="#e4b500"/><circle cx="11" cy="5" fill="#fc0" r="3.9995" stroke-width=".7999"/></svg>

<?xml version="1.0" encoding="UTF-8" standalone="no"?>
<svg
   xmlns:dc="http://purl.org/dc/elements/1.1/"
   xmlns:cc="http://creativecommons.org/ns#"
   xmlns:rdf="http://www.w3.org/1999/02/22-rdf-syntax-ns#"
   xmlns:svg="http://www.w3.org/2000/svg"
   xmlns="http://www.w3.org/2000/svg"
   xmlns:xlink="http://www.w3.org/1999/xlink"
   xmlns:sodipodi="http://sodipodi.sourceforge.net/DTD/sodipodi-0.dtd"
   xmlns:inkscape="http://www.inkscape.org/namespaces/inkscape"
   viewBox="0 0 16 16"
   version="1.1"
   id="svg12"
   sodipodi:docname="sc_objectforwardone.svg"
   inkscape:version="0.92.3 (unknown)"
   inkscape:export-filename="/home/rizmut/Dokumen/Rizmut/Github/libreoffice-style-sukapura/images_sukapura/cmd/sc_bringtofront.png"
   inkscape:export-xdpi="96"
   inkscape:export-ydpi="96"><metadata
   id="metadata18">
  <rdf:RDF>
    <cc:Work
       rdf:about="">
      <dc:format>image/svg+xml</dc:format>
      <dc:type
         rdf:resource="http://purl.org/dc/dcmitype/StillImage" />
      <dc:title></dc:title>
    </cc:Work>
  </rdf:RDF>
</metadata>
<defs
   id="defs16">
  <linearGradient
     gradientTransform="translate(-12,28)"
     y2="2"
     y1="16"
     x2="10"
     x1="10"
     gradientUnits="userSpaceOnUse"
     id="linearGradient1639">
    <stop
       id="stop1633"
       stop-color="#f5f5f5"
       offset="0" />
    <stop
       id="stop1637"
       stop-color="#fff"
       offset="1" />
  </linearGradient>
  <linearGradient
     inkscape:collect="always"
     xlink:href="#linearGradient1639"
     id="linearGradient954"
     x1="5"
     y1="15"
     x2="5"
     y2="7"
     gradientUnits="userSpaceOnUse" />
</defs>
<sodipodi:namedview
   pagecolor="#ffffff"
   bordercolor="#666666"
   borderopacity="1"
   objecttolerance="10"
   gridtolerance="10"
   guidetolerance="10"
   inkscape:pageopacity="0"
   inkscape:pageshadow="2"
   inkscape:window-width="1366"
   inkscape:window-height="706"
   id="namedview14"
   showgrid="true"
   inkscape:zoom="11.313709"
   inkscape:cx="2.3101278"
   inkscape:cy="3.1167976"
   inkscape:window-x="0"
   inkscape:window-y="0"
   inkscape:window-maximized="1"
   inkscape:current-layer="svg12">
  <inkscape:grid
     type="xygrid"
     id="grid828"
     spacingx="0.5"
     spacingy="0.5"
     empspacing="2" />
</sodipodi:namedview>


     /&amp;gt;
 <g
   id="g943">
  <path
     style="fill:url(#linearGradient954);fill-opacity:1"
     d="M 1 7 L 1 15 L 5.3496094 15 L 10 15 L 10 11.089844 L 10 10.910156 L 10 7 L 5.3496094 7 L 1 7 z "
     id="path2-6" />
  <path
     style="fill:#98989d;fill-opacity:1"
     d="M 0.5 6 A 0.50005 0.50005 0 0 0 0.46484375 6.0019531 A 0.50005 0.50005 0 0 0 0.41601562 6.0078125 A 0.50005 0.50005 0 0 0 0.33203125 6.0292969 A 0.50005 0.50005 0 0 0 0.31054688 6.0371094 A 0.50005 0.50005 0 0 0 0.3046875 6.0390625 A 0.50005 0.50005 0 0 0 0.2734375 6.0546875 A 0.50005 0.50005 0 0 0 0.23046875 6.0800781 A 0.50005 0.50005 0 0 0 0.20117188 6.0996094 A 0.50005 0.50005 0 0 0 0.18359375 6.1132812 A 0.50005 0.50005 0 0 0 0.1640625 6.1308594 A 0.50005 0.50005 0 0 0 0.14648438 6.1464844 A 0.50005 0.50005 0 0 0 0.13085938 6.1640625 A 0.50005 0.50005 0 0 0 0.11328125 6.1835938 A 0.50005 0.50005 0 0 0 0.099609375 6.2011719 A 0.50005 0.50005 0 0 0 0.087890625 6.2167969 A 0.50005 0.50005 0 0 0 0.080078125 6.2304688 A 0.50005 0.50005 0 0 0 0.0546875 6.2734375 A 0.50005 0.50005 0 0 0 0.037109375 6.3105469 A 0.50005 0.50005 0 0 0 0.029296875 6.3320312 A 0.50005 0.50005 0 0 0 0.017578125 6.3652344 A 0.50005 0.50005 0 0 0 0.017578125 6.3710938 A 0.50005 0.50005 0 0 0 0.009765625 6.4003906 A 0.50005 0.50005 0 0 0 0.0078125 6.4160156 A 0.50005 0.50005 0 0 0 0.001953125 6.4648438 A 0.50005 0.50005 0 0 0 0 6.5 L 0 15.5 A 0.50005 0.50005 0 0 0 0.001953125 15.535156 A 0.50005 0.50005 0 0 0 0.0078125 15.583984 A 0.50005 0.50005 0 0 0 0.017578125 15.628906 A 0.50005 0.50005 0 0 0 0.017578125 15.634766 A 0.50005 0.50005 0 0 0 0.029296875 15.667969 A 0.50005 0.50005 0 0 0 0.037109375 15.689453 A 0.50005 0.50005 0 0 0 0.0390625 15.695312 A 0.50005 0.50005 0 0 0 0.0546875 15.726562 A 0.50005 0.50005 0 0 0 0.080078125 15.769531 A 0.50005 0.50005 0 0 0 0.099609375 15.798828 A 0.50005 0.50005 0 0 0 0.11328125 15.816406 A 0.50005 0.50005 0 0 0 0.13085938 15.835938 A 0.50005 0.50005 0 0 0 0.14648438 15.853516 A 0.50005 0.50005 0 0 0 0.1640625 15.869141 A 0.50005 0.50005 0 0 0 0.18359375 15.886719 A 0.50005 0.50005 0 0 0 0.20117188 15.900391 A 0.50005 0.50005 0 0 0 0.21679688 15.912109 A 0.50005 0.50005 0 0 0 0.23046875 15.919922 A 0.50005 0.50005 0 0 0 0.2734375 15.945312 A 0.50005 0.50005 0 0 0 0.31054688 15.962891 A 0.50005 0.50005 0 0 0 0.33203125 15.970703 A 0.50005 0.50005 0 0 0 0.40039062 15.990234 A 0.50005 0.50005 0 0 0 0.41601562 15.992188 A 0.50005 0.50005 0 0 0 0.46484375 15.998047 A 0.50005 0.50005 0 0 0 0.5 16 L 5.0859375 16 L 10.5 16 A 0.50005 0.50005 0 0 0 11 15.5 L 11 11 L 11 6.5 A 0.50005 0.50005 0 0 0 10.5 6 L 5.0859375 6 L 0.5 6 z M 1 7 L 5.3496094 7 L 10 7 L 10 10.910156 L 10 11.089844 L 10 15 L 5.3496094 15 L 1 15 L 1 7 z "
     id="path4" />
  <g
     id="g967">
    <path
       id="circle6"
       d="M 11 0 A 5 5 0 0 0 6 5 A 5 5 0 0 0 11 10 A 5 5 0 0 0 16 5 A 5 5 0 0 0 11 0 z M 11 1 A 3.9995003 3.9995003 0 0 1 15 5 A 3.9995003 3.9995003 0 0 1 11 9 A 3.9995003 3.9995003 0 0 1 7 5 A 3.9995003 3.9995003 0 0 1 11 1 z "
       style="fill:#e4b500;fill-opacity:1" />
    <circle
       id="circle960"
       r="3.9995003"
       cy="5"
       cx="11"
       style="fill:#ffcc00;fill-opacity:1;stroke-width:0.79990005" />
  </g>
</g>
</svg>
